X: 35456
T: Rowdledum
R: slip jig
M: 9/8
K: Dmajor
D2d dcB c2A|ded fed fga|bge afd cBA|BcB B2A Bcd:|
BEE BEE FED|BEE BEE dcd|BEE BEE FED|AGF FED FGA:|

